img/avatar3.svg

<?xml version="1.0" encoding="UTF-8"?>
<svg width="186px" height="199px" viewBox="0 0 186 199" version="1.1" xmlns="http://www.w3.org/2000/svg" xmlns:xlink="http://www.w3.org/1999/xlink">
    <!-- Generator: Sketch 48.2 (47327) - http://www.bohemiancoding.com/sketch -->
    <title>avataaar</title>
    <desc>Created with Sketch.</desc>
    <defs>
        <path d="M57.5757576,103.060244 C45.1605961,97.1624441 36.0644246,85.4121705 33.8524518,71.3746319 C29.3002761,70.8785674 25.7575758,67.0218359 25.7575758,62.3376623 L25.7575758,53.3766234 C25.7575758,48.8720835 29.0337677,45.1327393 33.3333333,44.4114089 L33.3333333,42.4242424 C33.3333333,18.9939803 52.3273136,4.30406933e-15 75.7575758,0 C99.1878379,-4.30406933e-15 118.181818,18.9939803 118.181818,42.4242424 L118.181818,44.4114089 C122.481384,45.1327393 125.757576,48.8720835 125.757576,53.3766234 L125.757576,62.3376623 C125.757576,67.0218359 122.214875,70.8785674 117.6627,71.3746319 C115.450727,85.4121705 106.354555,97.1624441 93.9393939,103.060244 L93.9393939,116.429241 C125.76356,116.58078 151.515152,142.425944 151.515152,174.285714 L0,174.285714 C-3.90169656e-15,142.425944 25.7515919,116.58078 57.5757576,116.429241 L57.5757576,103.060244 Z" id="path-1"></path>
        <path d="M137.765886,24.4490495 C159.944906,32.6419073 175.757576,53.9743302 175.757576,79 L24.2424242,79 C24.2424242,53.6742101 40.4366344,32.1307807 63.0347899,24.1599766 C62.9315441,24.8002424 62.8787879,25.4487445 62.8787879,26.1042035 C62.8787879,37.7971878 79.6681098,47.2762245 100.378788,47.2762245 C121.089466,47.2762245 137.878788,37.7971878 137.878788,26.1042035 C137.878788,25.5471999 137.84069,24.9952201 137.765886,24.4490495 Z" id="path-3"></path>
        <path d="M26.6635482,10.658418 C27.4667443,17.34577 33.5789903,22.5454545 41,22.5454545 C48.4439338,22.5454545 54.5710057,17.3135958 55.3437431,10.5964021 C55.4059335,10.0557983 54.7553048,9.15909091 53.9398787,9.15909091 C42.6314611,9.15909091 33.967681,9.15909091 28.1585148,9.15909091 C27.3383572,9.15909091 26.5831896,9.98935795 26.6635482,10.658418 Z" id="path-5"></path>
        <rect id="path-7" x="0" y="0" width="200" height="200"></rect>
        <path d="M118.466165,129.007822 C131.780879,123.058442 141.28738,110.792846 142.609077,96.3276303 C146.99639,95.6706489 150.360902,91.8861312 150.360902,87.3157895 L150.360902,79.112782 C150.360902,74.5974041 147.076828,70.849063 142.766917,70.125997 L142.766917,65.7142857 C142.766917,60.0390413 141.510359,54.6398471 139.244654,49.7494175 C131.706211,37.8571429 67.823872,38.4309994 61.2909598,49.6324868 C58.9909704,54.5537296 57.7142857,59.9937718 57.7142857,65.7142857 L57.7142857,70.125997 C53.4043752,70.849063 50.1203008,74.5974041 50.1203008,79.112782 L50.1203008,87.3157895 C50.1203008,91.8861312 53.4848133,95.6706489 57.8721261,96.3276303 C59.1938231,110.792846 68.7003241,123.058442 82.0150376,129.007822 L82.0150376,142.14303 C50.1271071,142.220098 24.3007519,168.094015 24.3007519,200 L0,200 L0,0 L200.481203,0 L200.481203,200 L176.180451,200 C176.180451,168.094015 150.354096,142.220098 118.466165,142.14303 L118.466165,129.007822 Z" id="path-9"></path>
    </defs>
    <g id="Page-5" stroke="none" stroke-width="1" fill="none" fill-rule="evenodd">
        <g id="Avataaar/Default" transform="translate(-7.000000, -1.000000)">
            <g id="Body" stroke-width="1" fill-rule="evenodd" transform="translate(24.242424, 25.714286)">
                <mask id="mask-2" fill="white">
                    <use xlink:href="#path-1"></use>
                </mask>
                <use fill="#D0C6AC" xlink:href="#path-1"></use>
                <g id="Skin/👶🏻-05-Pale" mask="url(#mask-2)" fill="#FFDBB4">
                    <g transform="translate(-24.242424, 0.000000)" id="Color">
                        <rect x="0" y="0" width="200" height="174"></rect>
                    </g>
                </g>
                <path d="M118.181818,64.7186147 L118.181818,70.4329004 C118.181818,93.8631625 99.1878379,112.857143 75.7575758,112.857143 C52.3273136,112.857143 33.3333333,93.8631625 33.3333333,70.4329004 L33.3333333,64.7186147 C33.3333333,88.1488768 52.3273136,107.142857 75.7575758,107.142857 C99.1878379,107.142857 118.181818,88.1488768 118.181818,64.7186147 Z" id="Neck-Shadow" fill-opacity="0.100000001" fill="#000000" mask="url(#mask-2)"></path>
            </g>
            <g id="Clothing/Shirt-Scoop-Neck" transform="translate(0.000000, 121.428571)">
                <mask id="mask-4" fill="white">
                    <use xlink:href="#path-3"></use>
                </mask>
                <use id="Clothes" fill="#E6E6E6" fill-rule="evenodd" xlink:href="#path-3"></use>
                <g id="Color/Palette/Gray-01" mask="url(#mask-4)" fill="#E6E6E6" fill-rule="evenodd">
                    <rect id="🖍Color" x="0" y="0" width="200" height="79"></rect>
                </g>
            </g>
            <g id="Face" stroke-width="1" fill-rule="evenodd" transform="translate(57.575758, 58.571429)">
                <g id="Mouth/Smile" transform="translate(1.515152, 37.142857)">
                    <mask id="mask-6" fill="white">
                        <use xlink:href="#path-5"></use>
                    </mask>
                    <use id="Mouth" fill-opacity="0.699999988" fill="#000000" fill-rule="evenodd" xlink:href="#path-5"></use>
                    <rect id="Teeth" fill="#FFFFFF" fill-rule="evenodd" mask="url(#mask-6)" x="29.6111111" y="1.40909091" width="23.537037" height="11.2727273" rx="5"></rect>
                    <g id="Tongue" stroke-width="1" fill-rule="evenodd" mask="url(#mask-6)" fill="#FF4F6D">
                        <g transform="translate(28.851852, 16.909091)">
                            <ellipse cx="8.35185185" cy="7.75" rx="8.35185185" ry="7.75"></ellipse>
                            <ellipse cx="15.9444444" cy="7.75" rx="8.35185185" ry="7.75"></ellipse>
                        </g>
                    </g>
                </g>
                <g id="Nose/Default" transform="translate(21.212121, 28.571429)" fill="#000000" fill-opacity="0.16">
                    <path d="M12,5.66666667 C12,8.79628025 16.0294373,11.3333333 21,11.3333333 C25.9705627,11.3333333 30,8.79628025 30,5.66666667" id="Nose"></path>
                </g>
                <g id="Eyes/Default-😀" transform="translate(0.000000, 5.714286)" fill="#000000" fill-opacity="0.599999964">
                    <ellipse id="Eye" cx="22.7678571" cy="15.5" rx="4.55357143" ry="4.22727273"></ellipse>
                    <ellipse id="Eye" cx="62.2321429" cy="15.5" rx="4.55357143" ry="4.22727273"></ellipse>
                </g>
                <g id="Eyebrow/Outline/Default" fill="#000000" fill-opacity="0.599999964">
                    <g id="I-Browse" transform="translate(9.107143, 4.250000)">
                        <path d="M2.75509693,7.90399186 C5.72623371,4.00198893 13.8716355,1.81392636 20.8880114,3.42208616 C21.7021126,3.60867889 22.5241398,3.14398009 22.7240606,2.38415233 C22.9239814,1.62432457 22.4260898,0.857099171 21.6119886,0.670506435 C13.4636686,-1.19709601 4.03150418,1.33662381 0.28061736,6.26267481 C-0.204993913,6.90042956 -0.0447285115,7.78485328 0.638580152,8.23809046 C1.32188882,8.69132765 2.26948565,8.54174661 2.75509693,7.90399186 Z" id="Eyebrow" fill-rule="nonzero"></path>
                        <path d="M46.7729541,7.90399186 C49.7440909,4.00198893 57.8894926,1.81392636 64.9058685,3.42208616 C65.7199697,3.60867889 66.5419969,3.14398009 66.7419177,2.38415233 C66.9418385,1.62432457 66.4439469,0.857099171 65.6298458,0.670506435 C57.4815257,-1.19709601 48.0493613,1.33662381 44.2984745,6.26267481 C43.8128632,6.90042956 43.9731286,7.78485328 44.6564373,8.23809046 C45.339746,8.69132765 46.2873428,8.54174661 46.7729541,7.90399186 Z" id="Eyebrow" fill-rule="nonzero" transform="translate(55.401902, 4.277765) scale(-1, 1) translate(-55.401902, -4.277765) "></path>
                    </g>
                </g>
            </g>
            <g id="Top" stroke-width="1" fill-rule="evenodd">
                <mask id="mask-8" fill="white">
                    <use xlink:href="#path-7"></use>
                </mask>
                <g id="Mask"></g>
                <g id="Top/Accesories/Hat" mask="url(#mask-8)">
                    <g transform="translate(-0.757576, 0.000000)">
                        <g id="Hat" stroke-width="1" fill-rule="evenodd" transform="translate(0.759398, 0.000000)">
                            <mask id="mask-10" fill="white">
                                <use xlink:href="#path-9"></use>
                            </mask>
                            <g id="Mask-Hair"></g>
                            <path d="M100.620301,1.42857143 L100.620301,1.42857143 C119.07652,1.42857143 135.09892,14.1466655 139.287394,32.1213344 L144.285714,53.5714286 L56.9548872,53.5714286 L61.9532077,32.1213344 C66.1416813,14.1466655 82.1640814,1.42857143 100.620301,1.42857143 Z" fill="#1F333C" mask="url(#mask-10)"></path>
                            <ellipse id="Hipster" fill="#1F333C" mask="url(#mask-10)" cx="100.240602" cy="62.5" rx="92.6466165" ry="41.0714286"></ellipse>
                            <ellipse id="Very" fill="#15232A" mask="url(#mask-10)" cx="100.240602" cy="58.5714286" rx="47.0827068" ry="17.8571429"></ellipse>
                        </g>
                        <g id="Facial-Hair/-Blank" transform="translate(37.210526, 51.428571)"></g>
                        <g id="Top/_Resources/Blank" transform="translate(47.082707, 60.714286)"></g>
                    </g>
                </g>
            </g>
        </g>
    </g>
</svg>

<?xml version="1.0" encoding="UTF-8"?>
<svg version="1.1" viewBox="0 0 186 199" xmlns="http://www.w3.org/2000/svg" xmlns:xlink="http://www.w3.org/1999/xlink">
<title>avataaar</title>
<desc>Created with Sketch.</desc>
<defs>
<path id="d" d="m57.576 103.06c-12.415-5.8978-21.511-17.648-23.723-31.686-4.5522-0.49606-8.0949-4.3528-8.0949-9.037v-8.961c0-4.5045 3.2762-8.2439 7.5758-8.9652v-1.9872c0-23.43 18.994-42.424 42.424-42.424 23.43-4.3041e-15 42.424 18.994 42.424 42.424v1.9872c4.2996 0.72133 7.5758 4.4607 7.5758 8.9652v8.961c0 4.6842-3.5427 8.5409-8.0949 9.037-2.212 14.038-11.308 25.788-23.723 31.686v13.369c31.824 0.15154 57.576 25.997 57.576 57.856h-151.52c-3.9017e-15 -31.86 25.752-57.705 57.576-57.856v-13.369z"/>
<path id="c" d="m137.77 24.449c22.179 8.1929 37.992 29.525 37.992 54.551h-151.52c0-25.326 16.194-46.869 38.792-54.84-0.10325 0.64027-0.156 1.2888-0.156 1.9442 0 11.693 16.789 21.172 37.5 21.172 20.711 0 37.5-9.479 37.5-21.172 0-0.557-0.038098-1.109-0.1129-1.6552z"/>
<path id="b" d="m26.664 10.658c0.8032 6.6874 6.9154 11.887 14.336 11.887 7.4439 0 13.571-5.2319 14.344-11.949 0.06219-0.5406-0.58844-1.4373-1.4039-1.4373h-25.781c-0.82016 0-1.5753 0.83027-1.495 1.4993z"/>
<rect id="h" width="200" height="200"/>
<path id="g" d="m118.47 129.01c13.315-5.9494 22.821-18.215 24.143-32.68 4.3873-0.65698 7.7518-4.4415 7.7518-9.0118v-8.203c0-4.5154-3.2841-8.2637-7.594-8.9868v-4.4117c0-5.6752-1.2566-11.074-3.5223-15.965-7.5384-11.892-71.421-11.318-77.954-0.11693-2.3 4.9212-3.5767 10.361-3.5767 16.082v4.4117c-4.3099 0.72307-7.594 4.4714-7.594 8.9868v8.203c0 4.5703 3.3645 8.3549 7.7518 9.0118 1.3217 14.465 10.828 26.731 24.143 32.68v13.135c-31.888 0.077068-57.714 25.951-57.714 57.857h-24.301v-200h200.48v200h-24.301c0-31.906-25.826-57.78-57.714-57.857v-13.135z"/>
</defs>
<g fill="none" fill-rule="evenodd">
<g transform="translate(-7 -1)" fill-rule="evenodd">
<g transform="translate(24.242 25.714)">
<mask id="f" fill="white">
<use xlink:href="#d"/>
</mask>
<use fill="#D0C6AC" xlink:href="#d"/>
<g fill="#FFDBB4" mask="url(#f)">
<g transform="translate(-24.242)">
<rect width="200" height="174"/>
</g>
</g>
<path d="m118.18 64.719v5.7143c0 23.43-18.994 42.424-42.424 42.424-23.43 0-42.424-18.994-42.424-42.424v-5.7143c0 23.43 18.994 42.424 42.424 42.424 23.43 0 42.424-18.994 42.424-42.424z" fill="#000" fill-opacity=".1" mask="url(#f)"/>
</g>
<g transform="translate(0 121.43)" fill="#E6E6E6">
<mask id="j" fill="white">
<use xlink:href="#c"/>
</mask>
<use xlink:href="#c"/>
<g mask="url(#j)">
<rect width="200" height="79"/>
</g>
</g>
<g transform="translate(57.576 58.571)">
<g transform="translate(1.5152 37.143)" fill-rule="evenodd">
<mask id="e" fill="white">
<use xlink:href="#b"/>
</mask>
<use fill="#000000" fill-opacity=".7" xlink:href="#b"/>
<rect x="29.611" y="1.4091" width="23.537" height="11.273" rx="5" fill="#fff" mask="url(#e)"/>
<g fill="#FF4F6D" mask="url(#e)">
<g transform="translate(28.852 16.909)">
<ellipse cx="8.3519" cy="7.75" rx="8.3519" ry="7.75"/>
<ellipse cx="15.944" cy="7.75" rx="8.3519" ry="7.75"/>
</g>
</g>
</g>
<g transform="translate(21.212 28.571)" fill="#000" fill-opacity=".16">
<path d="m12 5.6667c0 3.1296 4.0294 5.6667 9 5.6667s9-2.5371 9-5.6667"/>
</g>
<g transform="translate(0 5.7143)" fill="#000" fill-opacity=".6">
<ellipse cx="22.768" cy="15.5" rx="4.5536" ry="4.2273"/>
<ellipse cx="62.232" cy="15.5" rx="4.5536" ry="4.2273"/>
</g>
<g fill="#000" fill-opacity=".6">
<g transform="translate(9.1071 4.25)" fill-rule="nonzero">
<path d="m2.7551 7.904c2.9711-3.902 11.117-6.0901 18.133-4.4819 0.8141 0.18659 1.6361-0.27811 1.836-1.0379s-0.29797-1.5271-1.1121-1.7136c-8.1483-1.8676-17.58 0.66612-21.331 5.5922-0.48561 0.63775-0.32535 1.5222 0.35796 1.9754 0.68331 0.45324 1.6309 0.30366 2.1165-0.3341z"/>
<path transform="translate(55.402 4.2778) scale(-1 1) translate(-55.402 -4.2778)" d="m46.773 7.904c2.9711-3.902 11.117-6.0901 18.133-4.4819 0.8141 0.18659 1.6361-0.27811 1.836-1.0379s-0.29797-1.5271-1.1121-1.7136c-8.1483-1.8676-17.58 0.66612-21.331 5.5922-0.48561 0.63775-0.32535 1.5222 0.35796 1.9754 0.68331 0.45324 1.6309 0.30366 2.1165-0.3341z"/>
</g>
</g>
</g>
<g>
<mask id="i" fill="white">
<use xlink:href="#h"/>
</mask>
<g mask="url(#i)">
<g transform="translate(-.75758)">
<g transform="translate(.7594)" fill-rule="evenodd">
<mask id="a" fill="white">
<use xlink:href="#g"/>
</mask>
<path d="m100.62 1.4286c18.456 0 34.479 12.718 38.667 30.693l4.9983 21.45h-87.331l4.9983-21.45c4.1885-17.975 20.211-30.693 38.667-30.693z" fill="#1F333C" mask="url(#a)"/>
<ellipse cx="100.24" cy="62.5" rx="92.647" ry="41.071" fill="#1F333C" mask="url(#a)"/>
<ellipse cx="100.24" cy="58.571" rx="47.083" ry="17.857" fill="#15232A" mask="url(#a)"/>
</g>
</g>
</g>
</g>
</g>
</g>
</svg>
